!!!COM: Palestrina, Giovanni Perluigi da
!!!OPR: Missa Petra sancta
!!!OMD: Credo
!!!OTL: First Section
**kern	**kern	**kern	**kern	**kern
*Ibass	*Itenor	*Itenor	*Icalto	*Icant
!Bassus	!Tenor 2	!Tenor 1	!Altus	!Cantus
*clefF4	*clefGv2	*clefGv2	*clefG2	*clefG2
*k[]	*k[]	*k[]	*k[]	*k[]
*A:aeo	*A:aeo	*A:aeo	*A:aeo	*A:aeo
*M4/2	*M4/2	*M4/2	*M4/2	*M4/2
=1	=1	=1	=1	=1
0r	1A	0r	1r	0r
.	2A	.	1e	.
.	2A	.	.	.
=2	=2	=2	=2	=2
0r	2.c	0r	2e	1ee
.	.	.	2e	.
.	4d	.	.	.
.	4e	.	2.g	2ee
.	4d	.	.	.
.	4e	.	.	2ee
.	4f	.	4a	.
=3	=3	=3	=3	=3
0r	2g	0r	2b	2dd
.	2e	.	2g	2cc
.	1d	.	2a	1ff
.	.	.	2b	.
=4	=4	=4	=4	=4
0r	2.a	1A	0cc	1ee
.	4g	.	.	.
.	2f	2A	.	2r
.	4e	2A	.	2a
.	4d	.	.	.
=5	=5	=5	=5	=5
1A	1e	2.c	2r	2a
.	.	.	2a	2a
.	.	4d	.	.
2A	1r	4e	2a	1cc
.	.	4d	.	.
2A	.	4e	2a	.
.	.	4f	.	.
=6	=6	=6	=6	=6
2G	0r	2g	4d	2b-
.	.	.	4d	.
2F	.	2c	2.f	1a
1B-	.	1d	.	.
.	.	.	4e	.
.	.	.	2d	2g
=7	=7	=7	=7	=7
2A	2r	2.e	1c	4a
.	.	.	.	4b
2A	2e	.	.	4cc
.	.	4d	.	4dd
2A	2e	2c	1r	1ee
2G	2e	2B	.	.
=8	=8	=8	=8	=8
2.F	2d	2A	2r	0r
.	2c	2A	2a	.
4E	.	.	.	.
1D	1f	2.d	2a	.
.	.	.	2a	.
.	.	4c	.	.
=9	=9	=9	=9	=9
1E	1e	1B	2g	1ee
.	.	.	2g	.
1A	1e	2A	2.cc	2ee
.	.	2a	.	2ee
.	.	.	4b	.
=10	=10	=10	=10	=10
2D	1r	2f	2.a	2dd
2F	.	2e	.	2cc
.	.	.	4g	.
1D	2r	2.d	4f	1ff
.	.	.	4d	.
.	2A	.	[2a	.
.	.	4c	.	.
=11	=11	=11	=11	=11
1E	2e	1B	2a]	2.ee
.	2.e	.	2g#	.
.	.	.	.	4dd
1r	.	2A	[1a	4cc
.	4e	.	.	4a
.	2c	2A	.	2ee
=12	=12	=12	=12	=12
1D	2d	2d	0a]	2ff
.	2f	2.d	.	2dd
2A	[1e	.	.	1ee
.	.	4c	.	.
[2A	.	2c	.	.
=13	=13	=13	=13	=13
4A]	1e]	2A	2r	1r
4A	.	.	.	.
2G	.	2B	2e	.
2.A	1r	1c	2e	1a
.	.	.	[2a	.
4c	.	.	.	.
=14	=14	=14	=14	=14
1B	1r	1d	4a]	2dd
.	.	.	4g	.
.	.	.	2g	2.dd
1A	2r	1e	2.a	.
.	.	.	.	4dd
.	2A	.	.	2cc#
.	.	.	4a	.
=15	=15	=15	=15	=15
0r	2d	1r	2b-	2dd
.	1d	.	4a	2ff
.	.	.	4g	.
.	.	1A	1a	1ee
.	2c#	.	.	.
=16	=16	=16	=16	=16
1D	2d	2d	1r	1a
.	2f	1d	.	.
2A	[1e	.	2r	1r
[2A	.	2c	2a	.
=17	=17	=17	=17	=17
2A]	1e]	2A	2cc	2r
2G#	.	2B	2.b	2ee
2.A	1r	1c	.	2ff
.	.	.	4a	.
.	.	.	[2a	[2ee
4c	.	.	.	.
=18	=18	=18	=18	=18
1B-	1r	1d	2a]	4ee]
.	.	.	.	4dd
.	.	.	2g	1dd
1A	2r	1e	2.a	.
.	[2a	.	.	2cc#
.	.	.	4g	.
=19	=19	=19	=19	=19
2r	2a]	1d	4f	0dd
.	.	.	4e	.
1d	2a	.	4f	.
.	.	.	4g	.
.	1f	2r	1a	.
2d	.	[2a	.	.
=20	=20	=20	=20	=20
2.c	1e	2a]	0r	0r
.	.	2g	.	.
4B	.	.	.	.
2A	2c	2f	.	.
2G	2B	2e	.	.
=21	=21	=21	=21	=21
2A	2c	2.f	2r	0r
1B-	2.d	.	1f	.
.	.	4e	.	.
.	.	2d	.	.
.	4e	.	.	.
2A	[2f	2c	2f	.
=22	=22	=22	=22	=22
1G	4f]	2d	1b-	1r
.	8e	.	.	.
.	8d	.	.	.
.	2e	2B-	.	.
1F	1f	2c	2a	2r
.	.	2A	[2a	[2ff
=23	=23	=23	=23	=23
0r	2.f	2d	4a]	4ff]
.	.	.	4a	4ff
.	.	2d	2b	2ff
.	4f	.	.	.
.	2g	2c	2.cc	2.ee
.	2a	4A	.	.
.	.	4B	4b	4dd
=24	=24	=24	=24	=24
0r	1e	4c	2a	2cc
.	.	4d	.	.
.	.	2e	2g#	2b
.	1r	2A	2a	2cc
.	.	2a	2d	2dd
=25	=25	=25	=25	=25
1r	2r	2a	1e	1b
.	1e	2g#	.	.
[1A	.	[1a	2r	1a
.	2e	.	[2c	.
=26	=26	=26	=26	=26
2A]	2f	1a]	2c]	0r
2A	2f	.	2c	.
2B	[1g	1r	2d	.
2B	.	.	2d	.
=27	=27	=27	=27	=27
1c	1g]	2r	2.e	1r
.	.	1e	.	.
.	.	.	4d	.
1A	1a	.	1c#	2r
.	.	2e	.	[2a
=28	=28	=28	=28	=28
1d	2r	2f#	1d	2a]
.	1d	2f#	.	2a
1G	.	1g	2r	2b
.	2d	.	2g	2b
=29	=29	=29	=29	=29
1c	2e	2e	2g	2.cc
.	2e	2c	2.cc	.
.	.	.	.	4b
2F	2.f	1c	.	4a
.	.	.	4b	4b
2F	.	.	2a	4cc
.	4e	.	.	4a
=30	=30	=30	=30	=30
2G	2d	0r	2g	2b
2A	4c	.	2e	1a
.	8B	.	.	.
.	8A	.	.	.
1E	2B	.	1e	.
.	2B	.	.	2g#
=31	=31	=31	=31	=31
2r	1A	2r	2r	1a
2F	.	2a	2c	.
2F	2r	2a	2f	1r
2E	2c	2g	2g	.
=32	=32	=32	=32	=32
1F	2c	1f	1a	1r
.	2A	.	.	.
2.C	1c	2e	[1g	1ee
.	.	2c	.	.
4D	.	.	.	.
=33	=33	=33	=33	=33
4E	2G	2c	1g]	2ee
4F	.	.	.	.
2G	2g	2B	.	2dd
1C	2g	2c	2r	2ee
.	2e	2c	[2cc	2ee
=34	=34	=34	=34	=34
2r	2g	1G	2cc]	0dd
2G	2g	.	1b	.
2G	[1d	2r	.	.
2F#	.	[2d	2a	.
=35	=35	=35	=35	=35
2G	1d]	2d]	2b	2r
2G	.	2B	2b	1gg
1D	2r	1d	1a	.
.	[2d	.	.	[2ff
=36	=36	=36	=36	=36
1r	2d]	1A	2a	4ff]
.	.	.	.	8ee
.	.	.	.	8dd
.	2c#	.	2a	2ee
1D	1d	2r	1a	1ff
.	.	[2d	.	.
=37	=37	=37	=37	=37
1.A	1e	2d]	2a	2ee
.	.	1c	2cc	2ee
.	2r	.	2a	1ee
2G#	2e	2B	[2b	.
=38	=38	=38	=38	=38
1A	2e	2.c	4b]	2cc
.	.	.	4a	.
.	2c	.	1a	2.ee
.	.	4A	.	.
1E	1e	1B	.	.
.	.	.	.	4dd
.	.	.	2g#	2b
=39	=39	=39	=39	=39
2r	0e	1A	0a	2cc
1A	.	.	.	1cc
.	.	2r	.	.
2A	.	[2e	.	2cc
=40	=40	=40	=40	=40
2G#	2r	2e]	0r	2b
2A	1a	2e	.	2cc
1B	.	2.d	.	1dd
.	2g#	.	.	.
.	.	4e	.	.
=41	=41	=41	=41	=41
2A	1a	1f	2r	1cc
2F	.	.	1a	.
1A	1r	2e	.	2r
.	.	2c	2a	[2ee
=42	=42	=42	=42	=42
1c	0r	1e	2g	2ee]
.	.	.	2a	2ee
1G	.	2g	1b-	2dd
.	.	2g	.	2ee
=43	=43	=43	=43	=43
2.d	0r	2f	2a	1.ff
.	.	2d	2f	.
8c	.	.	.	.
8B	.	.	.	.
[1A	.	1c	2a	.
.	.	.	[2cc	2ee
=44	=44	=44	=44	=44
2A]	1r	1f	2cc]	2cc
2B	.	.	2b	2dd
1c	2r	1e	4a	2.ee
.	.	.	4g	.
.	[2e	.	[2cc	.
.	.	.	.	4dd
=45	=45	=45	=45	=45
1A	2e]	0r	4cc]	2cc
.	.	.	4b	.
.	2e	.	2.a	2cc
1r	2d	.	.	1b
.	.	.	8g#	.
.	.	.	8f#	.
.	2e	.	2g#	.
=46	=46	=46	=46	=46
2.D	1.f	2.d	2a	1a
.	.	.	1a	.
4D	.	4d	.	.
2D	.	2d	.	1r
2E	2e	2B	2g#	.
=47	=47	=47	=47	=47
2F	2c	2A	2a	2r
2D	2d	2A	2f	2.a
1A	2.e	4c	4e	.
.	.	4B	4d	4b
.	.	4A	4c	4cc
.	4d	4B	4B	4dd
=48	=48	=48	=48	=48
1A	2c	4c	2A	4ee
.	.	4d	.	4ff
.	2c	4e	2a	2.ee
.	.	4f	.	.
1r	1B-	4g	1d	.
.	.	4f	.	4dd
.	.	4e	.	[2dd
.	.	4d	.	.
=49	=49	=49	=49	=49
1r	1A	1e	[0a	2dd]
.	.	.	.	2cc#
2r	2r	1d	.	1dd
[2d	[2f	.	.	.
=50	=50	=50	=50	=50
2d]	2f]	2r	1a]	0r
2c#	2e	1a	.	.
2d	2f	.	1r	.
2B-	2d	2g	.	.
=51	=51	=51	=51	=51
1A	2c	2a	0r	0r
.	2.A	2f	.	.
[1c	.	1e	.	.
.	4B	.	.	.
.	4c	.	.	.
.	4d	.	.	.
=52	=52	=52	=52	=52
2c]	2e	1g	1r	2r
2B-	2d	.	.	1dd
1A	1a	2f	2r	.
.	.	2e	[2a	2cc#
=53	=53	=53	=53	=53
2D	0r	2f	2a]	2dd
2E	.	4e	2g#	2b
.	.	4d	.	.
2F	.	4c	2a	1a
.	.	4A	.	.
2D	.	2d	2f	.
=54	=54	=54	=54	=54
1A	0r	4c	1e	1.cc
.	.	4d	.	.
.	.	4e	.	.
.	.	4c	.	.
1G	.	2d	[1g	.
.	.	[2e	.	2b
=55	=55	=55	=55	=55
1D	0r	4e]	2g]	[0a
.	.	4d	.	.
.	.	1d	2f	.
1A	.	.	1e	.
.	.	2c#	.	.
=56	=56	=56	=56	=56
1r	2r	1d	1f#	1a]
.	2d	.	.	.
1G	2d	1r	[1g	1b
.	2d	.	.	.
=57	=57	=57	=57	=57
2G	2e	1r	1g]	2b
2G	2d	.	.	2b
2A	2c	2r	1r	2cc
[2G	8d	2d	.	[2b
.	8c	.	.	.
.	8B	.	.	.
.	8A	.	.	.
=58	=58	=58	=58	=58
2G]	2G	2d	1r	2b]
2F	2A	2d	.	1a
1E	1B	2.e	2r	.
.	.	.	2e	2g#
.	.	4d	.	.
=59	=59	=59	=59	=59
1A	1r	4c	2e	1a
.	.	4B	.	.
.	.	2c	2e	.
1r	2r	2d	2f	1r
.	2g	[2c	[2e	.
=60	=60	=60	=60	=60
1r	2g	2c]	4e]	1r
.	.	.	4d	.
.	2g	2B	1d	.
2r	1a	1A	.	1ee
2A	.	.	4c#	.
.	.	.	4B	.
=61	=61	=61	=61	=61
2A	1a	0r	2c#	2ee
2A	.	.	2a	2ee
2d	2r	.	2a	2ff
2c#	2e	.	2a	[2ee
=62	=62	=62	=62	=62
1d	1f	0r	2b-	4ee]
.	.	.	.	4dd
.	.	.	2.a	2.dd
1e	1g	.	.	.
.	.	.	4g	8cc#
.	.	.	.	8b
.	.	.	[2g	2cc#
=63	=63	=63	=63	=63
1d	1a	2r	2g]	0dd
.	.	2.a	2f#	.
1d	1r	.	2r	.
.	.	4g	.	.
.	.	2f	[2a	.
=64	=64	=64	=64	=64
2c	0r	2e	2a]	0r
2B	.	2d	2g	.
2.A	.	2.c	2f	.
.	.	.	2e	.
4G	.	4B	.	.
=65	=65	=65	=65	=65
2F	0r	2A	2.d	0r
2.G	.	4B	.	.
.	.	4A	4c	.
.	.	4B	4B	.
4F	.	4c	8A	.
.	.	.	8G	.
2D	.	[2d	2A	.
=66	=66	=66	=66	=66
1E	1r	2d]	2G	1r
.	.	2c#	2g	.
1D	1a	2d	4f	1ff
.	.	.	4g	.
.	.	2f	4a	.
.	.	.	4b	.
=67	=67	=67	=67	=67
0r	2g	2c	2cc	2ee
.	2f	2d	2a	2dd
.	2.e	[1A	2.a	2.cc
.	4d	.	8g	4b-
.	.	.	8f	.
=68	=68	=68	=68	=68
0r	2c	2A]	4e	2a
.	.	.	4f	.
.	2.d	2G	2g	2.b-
.	.	1d	4f	.
.	4e	.	4g	4a
.	[2f	.	4a	2f
.	.	.	4b	.
=69	=69	=69	=69	=69
0r	2f]	1c	1cc	1g
.	2e	.	.	.
.	1f	1F	1cc	1a
=70	=70	=70	=70	=70
0F	0f	2r	0a	0cc
.	.	1c	.	.
.	.	[2A	.	.
=71	=71	=71	=71	=71
1D	1a	2A]	1f	1dd
.	.	2.d	.	.
1A	2.a	.	1e	1ee
.	.	8c#	.	.
.	.	8B	.	.
.	.	2c#	.	.
.	4g	.	.	.
=72	=72	=72	=72	=72
1D	4f	1d	1a	1ff
.	4e	.	.	.
.	2.d	.	.	.
1A	.	1e	1a	2ee
.	8c#	.	.	.
.	8B	.	.	.
.	2c#	.	.	[2ee
=73	=73	=73	=73	=73
0D	1d	0f	1a	2ee]
.	.	.	.	4dd
.	.	.	.	4cc#
.	1d	.	2r	1dd
.	.	.	2a	.
=74	=74	=74	=74	=74
2r	1A	2r	1.cc	1ee
1A	.	1e	.	.
.	1r	.	.	1r
[2d	.	[2f	2b-	.
=75	=75	=75	=75	=75
2d]	0r	2f]	1a	0r
2c	.	2e	.	.
1B-	.	1d	1g	.
=76	=76	=76	=76	=76
1A	1e	1c#	2.a	1ee
.	.	.	4g	.
1D	[1a	2.d	4f	[1ff
.	.	.	4g	.
.	.	.	4a	.
.	.	4c	4b	.
=77	=77	=77	=77	=77
0r	2a]	4A	2.cc	2ff]
.	.	4B	.	.
.	2g	2c	.	2ee
.	.	.	4b	.
.	1f	1d	1a	1dd
=78	=78	=78	=78	=78
1A	1e	2r	2r	1cc#
.	.	2e	2a	.
1d	1d	1f	2a	1dd
.	.	.	[2a	.
=79	=79	=79	=79	=79
2.c	1r	2.e	2a]	0r
.	.	.	2g	.
4B	.	4d	.	.
2A	2r	2c	4f	.
.	.	.	4e	.
2G	2e	2B	[2e	.
=80	=80	=80	=80	=80
2F	1a	2A	2e]	0r
2F	.	2A	2d	.
1E	2.g	1B	1e	.
.	4f	.	.	.
=81	=81	=81	=81	=81
0C	2e	2.c	1g	0ee
.	2d	.	.	.
.	.	4d	.	.
.	2c	4e	2g	.
.	.	4f	.	.
.	2c	[2g	[2G	.
=82	=82	=82	=82	=82
0G	1B	2g]	4G]	0dd
.	.	.	4A	.
.	.	4G	4B	.
.	.	4A	4c	.
.	1B	4B	2d	.
.	.	4c	.	.
.	.	4d	[2d	.
.	.	4e	.	.
=83	=83	=83	=83	=83
0D	0d	1.f	4d]	1dd
.	.	.	4e	.
.	.	.	4f	.
.	.	.	4g	.
.	.	.	2a	[1ff
.	.	2d	[2f	.
=84	=84	=84	=84	=84
2.F	2c	1a	4f]	1ff]
.	.	.	4g	.
.	2.c	.	4a	.
4G	.	.	4b	.
1A	.	2a	2.cc	[1ee
.	4d	.	.	.
.	4e	[2a	.	.
.	8d	.	4b	.
.	8e	.	.	.
=85	=85	=85	=85	=85
0D	1f	4a]	0a	2ee]
.	.	4g	.	.
.	.	4f	.	4dd
.	.	4e	.	4cc#
.	1f	1d	.	1dd
=86	=86	=86	=86	=86
0A	0e	0c#	0a	0ee
*-	*-	*-	*-	*-
!!!CDT: 1525/^1526/-1594/2/2
!!!OCY: Italia
!!!AGN: Mass (Parody)
!!!AST: renaissance, vocal
!!!ASW: Madrigal 1561 (Palestrina)
!!!PWK: Masses, Book 10
!!!RNB: Cadence finals: D
!!!YOR: Le Opere Complete, v. 27, p. 52
!!!YOO: Rome, Italy: Fratelli Scalera
!!!END: 1992//
!!!EED: John Miller
!!!YEC: Copyright 2000, John Miller
!!!YEN: United States of America
!!!YEM: Rights to all derivative electronic formats reserved.
!!!YEM: Refer to licensing agreement for further details.
!!!YEM: This file must be accompanied by the licensing agreement.
!!!YEM: A copy of the licensing agreement may be found at http://www.music-cog.ohio-state.edu/HumdrumDatabases/Palestrina/license.txt
!!!EMD: converted to Humdrum by Bret Aarden
